!!!OTL: Graf und Nonne (Die Nonne) Es welken alle Blaetter,
!!!ARE: Europa, Osteuropa, Ungarn, Batschka
!!!YOR: 8, S. 288
!!    ???? aufgezeichnet
!!!SCT: Q0155E.
!!!YEM: Copyright 1995, estate of Helmut Schaffrath.
**kern
*ICvox
*Ivox
!! 3+2 metric grouping
!! Mixed meters:  4/4; 5/4
*M4/4
*k[f#]
*G:
{4d
=1
4.g
8d
4B
4d
=2
4g
4b
4b
8r}
{8b
=3
4.a
8g
4f#
4g
=4
4a
8d
8d
4d
4r}
=5
{8g
8a
=6
4.b
8b
4.b
8b
=7
4b
4dd
4cc}
{8a
8b
=8
4.cc
8cc
4.cc
8cc
=9
4cc
4ee
4dd}
{8dd
8cc
=10
4b
4b
4a
8a
8cc
=11
4b
2r}
==
!!!AGN: Ballade, Standesunterschied, vergebliche Werbung, Liebe, Klage
!! Anhaengsel an der zweiten Zeile. Taktart in Taktwechsel geaendert.
!!!ONB: ESAC (Essen Associative Code) Database: BALLADE
!!!AMT: irregular
!!!AIN: vox
!!!EED: Helmut Schaffrath
!!!EEV: 1.0
*-
